X: 64
T:Atlantic Wave, The
M:C|
L:1/8
R:Reel
K:G
(3DEF[|:G3B dGBd|cBcd efge|d2BG dGBG|FDAD BDAD|!
~G3B d2Bd|cBcd efge|dgfg ecAF|1GcAF G2 (3DEF:|2GcAF GA (3Bc
d|!
|:g2dg ed^ce|dfab adfa|bagf gdBG|FDAD BDAD|!
~G3B dGBd|cBcd efge|dgfg ecAF|1GcAF GA (3Bcd:|2GcAF G2 (3DEF|
